X:2316
T:Carval gyn ennym
T:(Untitled carol)
C:Traditional
Z:Collected by Mona Douglas -(said to be one of the Fairy Tailor's tunes) 
Z:KV316 
M:4/4 
L:1/8 
Q:60 
K:G 
d2|c2 B2 G2 G2|G2 A2 B2 d2|c2 B/A/G F2 G2|G6 d2|g2 g2 g2 e2|d4 d2 cB| 
A2 d2 d2 ^c2|d6 d2|c2 B2 G2 G2|G2 A2 B2 d2|c2 B/A/G F2 G2|G6|| 

